X:1
T:Of Late I've Been Driven Near Crazy
M:6/8
L:1/8
K:C
 G| GAE GAE| G G2- G3| GAB cBA| B3 z2 A|A-B A ABA| F F2- F2 F| DEF AGF|\
 E3 z2 G| GAE GAE| G G2- G2 G| GAB ced| A3 z2 A| ABc dcA| G c2 z cA|\
 GBc dAB| c3 z2||
